X:1
T:There’s a Hill Lone and Grey
T:John B. Bryant
T:There’s a Hill Lone and Grey
T:Public Domain
T:Public Domain
C:John B. Bryant
Z:Public Domain
%%score ( 1 2 ) ( 3 4 )
L:1/8
M:3/4
K:Eb
V:1 treble 
V:2 treble 
V:3 bass 
V:4 bass 
V:1
 [EB]>[EB] | [EB]4 [E=A][EB] | [EG]4 [EG]>[EG] | [EG]4 [E^F][EG] | [B,E]4 E>E | E2 [EG]2 [Ec]2 | %6
w: 1.~There’s a|hill lone and|grey, in a|land far a-|way, In a|be- yond the|
w: 2.~Be- hold!|faint on the|road, ’neath a|world’s hea- vy|load, Comes a|ed Man on|
w: 3.~Hark! I|hear the dull|blow of the|ham- mer swung|low; They are|my Lord to|
w: 4.~How they|mock Him in|death, to His|last lab- ’ring|breath, While His|ly weep o’er|
w: 5.~Then the|dark- ness came|down and the|rocks rent a-|round, And a|the grief la-|
w: 6.~Let the|sun hide its|face, let the|earth reel a-|pace, O- ver|their Sav- ior|
 [EB]2 [EG]2 E2 | [DF]4 [EG]>[GB] | [Ge]4 [GB]>[GB] | [Ac]4 [Ac][Ac] | [GB]2 [GB]2 [GB]2 | %11
w: sea, Where be-|that fair sky|went a Man|forth to die|For the world|
w: way, With a|He is bowed,|but still on|through the crowd|He’s as- cend-|
w: tree, And the|they up- raised|while the mul-|ti- tude gaze|On the blest|
w: way; But though|ly and faint,|still no word|of com- plaint|Fell from Him|
w: air; ’Twas the|of our King|Who re- ceived|death’s dark sting,|All to save|
w: slain; But be-|from the sod,|comes the blest|Lamb of God,|Who was slain|
 [GB]4 [B,E]>[B,E] | [B,E]2 [EG]2 [Ec]2 | [EB]2 [EG]2 [DF]2 | E4 ||"^Refrain" E>D | C4 C>D | %17
w: and for you|and for me.|||||
w: ing that hill|lone and grey.|||||
w: Lamb of dark|Cal- va- ry.|Oh, it bows|down|heart And|drops will start,|
w: on the hill|lone and grey.|||||
w: us from end-|less des- pair.|||||
w: and is ris-|en a- gain.|||||
 E4 E>[EF] | [EG]2 [EG]2 [EG]2 | [DG]4 [EG]>[EG] | [Ec]2 [Ec]2 [Ge]2 | [Fd]2 [Fd]2 [Ec]2 | [DB]4 |] %23
w: ||||||
w: ||||||
w: ’ry that grey|see. * *|||||
w: ||||||
w: ||||||
w: ||||||
V:2
 x2 | x6 | x6 | x6 | x4 E>E | E2 x4 | x4 E2 | x6 | x6 | x6 | x6 | x6 | x6 | x6 | E4 || E>D | %16
w: ||||count- ry|blue|neath||||||||||
w: ||||thorn crown-|the|cross||||||||||
w: ||||nail- ing|the|cross||||||||my|the tear-|
w: ||||friends sad-|the|lone-||||||||||
w: ||||cry pierced|den|voice||||||||||
w: ||||men who|have|hold||||||||||
 C4 C>D | E4 E3/2 x/ | x6 | x6 | x6 | x6 | x4 |] %23
w: |||||||
w: |||||||
w: When in mem-|hill I||||||
w: |||||||
w: |||||||
w: |||||||
V:3
 [E,G,]>[E,G,] | [E,G,]4 [E,^F,][E,G,] | [E,B,]4 [E,B,]>[E,B,] | [E,B,]4 [E,=A,][E,B,] | %4
w: ~ ~|~ ~ ~|~ ~ ~|~ ~ ~|
 [E,G,]4 [E,G,]>[E,G,] | [E,G,]2 [E,B,]2 [A,,A,]2 | [E,G,]2 [E,B,]2 [E,G,]2 | %7
w: ~ ~ ~|~ ~ ~|~ ~ ~|
 [B,,B,]4 [E,B,]>[E,B,] | [E,B,]4 [E,E]>[E,E] | [A,E]4 [A,E][A,E] | [E,E]2 [E,E]2 [E,E]2 | %11
w: ~ For ’twas|there on its|side, Je- sus|suf- fered and|
 [E,E]4 [E,G,]>[E,G,] | [E,G,]2 [E,B,]2 [A,,A,]2 | [B,,G,]2 [B,,B,]2 [B,,A,]2 | [E,G,]4 || E,>D, | %16
w: died To re-|deem a poor|sin- ner like|me.||
 C,4 C,>D, | E,4 [E,G,]>[E,A,] | [E,B,]2 [C,C]2 [C,C]2 | [G,=B,]4 [C,C]>[C,C] | %20
w: ||||
 [C,G,]2 [C,G,]2 [C,C]2 | [F,B,]2 [F,B,]2 [F,=A,]2 | [B,,B,]4 |] %23
w: |||
V:4
 x2 | x6 | x6 | x6 | x6 | x6 | x6 | x6 | x6 | x6 | x6 | x6 | x6 | x6 | x4 || E,>D, | C,4 C,>D, | %17
 E,4 x2 | x6 | x6 | x6 | x6 | x4 |] %23

